X:1
T:Less of Self and More of Jesus
T:Charles Hutchinson Gabriel
T:Less of Self and More of Jesus
T:Public Domain
T:Public Domain
T:Public Domain
C:Charles Hutchinson Gabriel
Z:Public Domain
%%score 1 ( 2 3 )
L:1/8
M:3/4
K:Bb
V:1 treble 
V:2 bass 
V:3 bass 
V:1
 F>G | F3 D F>G x | F2 E2 E>F | E3 E E>F x | D4 _A>A | G3 E GE | D2 D2 F>B | A3 B c>B | A4 F>G | %9
w: 1.~Less of|self and more of|Je- sus, Less of|man and more of|God; Ear- nest|prayer of ma- ny|work- ers In the|vine- yard of the|Lord. Less of|
w: 2.~Less of|self and more of|Je- sus, Pleads the|saint in ear- nest|prayer, For he|la- bors souls to|res- cue From the|tempt- er’s cru- el|snare. Self con-|
w: 3.~Less of|self and more of|Je- sus, As in|so- cial life we|meet; May the|beau- ties of sal-|va- tion O- thers|lead to Je- sus’|feet. Not in|
 F3 D F>G x | F2 E2 E>F | E3 E E>F x | D4 _A>A | G3 E GE x | D2 D2 F>G | E3 E E>F | D4 || %17
w: self and more of|Je- sus Girds the|soul with ho- ly|pow’r, Bright- ens|life, and sweet- ens|la- bor, In the|use of ev- ery|hour.|
w: cealed, faith works its|won- ders, Trusts the|mer- it of the|blood; Claims for|Christ the sin- ner’s|ran- som, Leads the|pen- i- tent to|God.|
w: vain ex- alt we|Je- sus, Not in|vain hide self a-|way; Great the|joy and sweet the|plea- sure Heav- en|grants us on our|way.|
"^Refrain" _A>A | G3 G G>_G | F2 F2 D>E | F3 B d>B | A4 F>G | F3 D F>^F x | G2 G2 F>E | D3 F F>E | %25
w: ||||||||
w: Less of|self and more of|Je- sus; Less of|man and more of|God; Ear- nest|prayer of ma- ny|work- ers In the|vine- yard of the|
w: ||||||||
 D4 |] %26
w: |
w: Lord.|
w: |
V:2
 D>E | (B,,F, z) F, D>E x | (F,,F,) [F,A,C]2 C>D | (F,,F, z) F, C>D x | [B,,F,B,]4 B,>C | %5
 (E,,B,, z) G, B,G, | [B,,F,]2 [B,,F,B,]2 D>D | (F,,C, z) D [F,A,E]>[F,B,D] | [F,,F,C]4 D>E | %9
 (B,,F, z) F, D>E x | (F,,F,) [F,A,C]2 C>D | (F,,F, z) F, C>D x | [B,,F,B,]4 B,>C | %13
 (E,,B,, z) G, B,G, x | [B,,F,]2 [B,,F,B,]2 D>E | (F,,C, A,)F, C>E | [B,,F,B,]4 || [D,B,]>[D,B,] | %18
 (E,,B,, E,)[G,B,] [E,B,E]>[E,B,] | [B,,B,D]2 [B,,B,D]2 B,>C | (B,,F, B,)[F,D] [B,,B,F]>[B,,F,D] | %21
 (F,,C, D,2) D>E | (B,,F, z) F, D>D x | (E,,B,,) [E,B,]2 A,>G, | [F,,F,]3 [F,B,D] [F,B,D]>[F,C] | %25
 [B,,F,B,]4 |] %26
V:3
 x2 | D3 (B,2 [B,,B,]2) | D2 x4 | C3 (A,2 [F,A,]2) | x6 | B,3 E,2 x | x6 | C3 D,2 x | x6 | %9
 D3 (B,2 [B,,B,]2) | D2 x4 | C3 (A,2 [F,A,]2) | x4 B,,2 | B,3 (E,2 E,2) | x6 | C3 [F,A,]2 x | x4 || %17
 x2 | E3 x3 | x6 | D3 x3 | C4 x2 | D3 (B,2 [B,,B,]2) | C2 x E,2 x | x6 | x4 |] %26

